Betaversie/Icons/information.svg

﻿<?xml version="1.0" encoding="utf-8"?>
<!DOCTYPE svg PUBLIC "-//W3C//DTD SVG 1.1//EN" "http://www.w3.org/Graphics/SVG/1.1/DTD/svg11.dtd">
<svg xmlns="http://www.w3.org/2000/svg" xmlns:xlink="http://www.w3.org/1999/xlink" version="1.1" baseProfile="full" width="24" height="24" viewBox="0 0 24.00 24.00" enable-background="new 0 0 24.00 24.00" xml:space="preserve">
	<path fill="#000000" fill-opacity="1" stroke-width="0.2" stroke-linejoin="round" d="M 11.5,3C 16.7467,3 21,7.25329 21,12.5C 21,17.7467 16.7467,22 11.5,22C 6.25329,22 2,17.7467 2,12.5C 2,7.25329 6.25329,3 11.5,3 Z M 11.5,4C 6.80557,4 3,7.80558 3,12.5C 3,17.1944 6.80558,21 11.5,21C 16.1944,21 20,17.1944 20,12.5C 20,7.80558 16.1944,4 11.5,4 Z M 11,8.00001L 11,10L 12,10L 12,8.00001L 11,8.00001 Z M 11,12L 11,17L 12,17L 12,12L 11,12 Z "/>
</svg>

<?xml version="1.0" encoding="utf-8"?>
<!-- Generator: Adobe Illustrator 22.0.1, SVG Export Plug-In . SVG Version: 6.00 Build 0)  -->
<svg version="1.1" id="Layer_1" xmlns="http://www.w3.org/2000/svg" xmlns:xlink="http://www.w3.org/1999/xlink" x="0px" y="0px"
	 viewBox="0 0 24 24" style="enable-background:new 0 0 24 24;" xml:space="preserve">
<style type="text/css">
	.st0{fill:#FFFFFF;}
</style>
<path class="st0" d="M11.5,3c5.2,0,9.5,4.3,9.5,9.5c0,5.2-4.3,9.5-9.5,9.5C6.3,22,2,17.7,2,12.5C2,7.3,6.3,3,11.5,3z M11.5,4
	C6.8,4,3,7.8,3,12.5c0,4.7,3.8,8.5,8.5,8.5c4.7,0,8.5-3.8,8.5-8.5C20,7.8,16.2,4,11.5,4z M11,8v2h1V8H11z M11,12v5h1v-5H11z"/>
</svg>
